img/logo-rd.svg

<svg width="52" height="29" viewBox="0 0 52 29" fill="none" xmlns="http://www.w3.org/2000/svg">
<path d="M0 14.3955C0 10.2868 0 6.17812 0 2.06941C0 0.61648 0.510389 0.0924717 1.97034 0.0924717C5.64989 0.0924717 9.32944 0.0805624 13.009 0.11629C17.4126 0.152018 21.4245 3.82008 21.9823 8.2146C22.291 10.7036 21.923 13.026 20.6648 15.2054C20.1782 16.039 20.2257 16.0628 21.0803 16.432C22.92 17.2299 24.5936 18.3375 26.2435 19.457C29.5432 21.7078 33.1516 22.9107 37.1635 22.8749C41.5789 22.8392 44.7718 20.3025 45.7214 15.9675C46.7065 11.4897 43.3356 6.74976 38.7896 6.26148C36.5818 6.02329 34.3622 6.22575 32.1545 6.1543C31.561 6.14239 31.4661 6.55921 31.4661 7.03558C31.478 9.91763 31.478 12.7878 31.4898 15.6698C31.4898 15.9437 31.4898 16.2296 31.4661 16.5035C31.3593 17.9207 30.3029 18.5638 29.0566 17.8849C27.7628 17.1942 26.6115 16.2653 25.4008 15.4435C25.1752 15.2887 25.1634 15.0505 25.1634 14.8123C25.1634 10.4297 25.1634 6.04711 25.1752 1.65259C25.1752 0.664117 25.745 0.11629 26.8014 0.0805624C27.834 0.0448346 28.8548 0.0686531 29.8874 0.0567439C32.926 0.00910673 35.9765 -0.0861675 39.0151 0.175837C45.116 0.699845 49.1042 4.04635 51.122 9.71517C54.2437 18.4685 48.2733 27.9483 39.0626 28.8772C33.1753 29.4727 27.7628 27.8768 22.8607 24.6256C20.3325 22.9464 17.7093 21.6245 14.7063 21.0885C13.6499 20.898 12.5936 20.7789 11.5253 20.767C9.94665 20.7432 9.43627 20.1953 9.4244 18.6233C9.4244 17.873 9.41253 17.1108 9.4244 16.3606C9.44814 14.8838 9.91105 14.4312 11.3829 14.336C13.7449 14.1931 15.5965 12.5972 15.9882 10.3464C16.3799 8.13124 14.8013 6.19002 12.5579 6.1543C10.7775 6.13048 8.99709 6.13048 7.21667 6.13048C6.50449 6.13048 6.33832 6.2853 6.33832 6.99986C6.33832 8.2146 6.3858 9.41744 6.3858 10.6322C6.3858 15.7532 6.3858 20.8742 6.3858 25.9952C6.3858 28.3294 6.06532 28.6509 3.76264 28.6509C3.0742 28.6509 2.3739 28.6628 1.68547 28.639C0.581606 28.6033 0.023739 28.0197 0.023739 26.9122C0 22.7677 0 18.5757 0 14.3955Z" fill="#737380"/>
</svg>

<svg width="52" height="29" fill="none" xmlns="http://www.w3.org/2000/svg"><path d="M0 14.396V2.069C0 .616.51.092 1.97.092c3.68 0 7.36-.011 11.039.024 4.404.036 8.415 3.704 8.973 8.099.309 2.489-.059 4.811-1.317 6.99-.487.834-.44.858.415 1.227 1.84.798 3.514 1.905 5.164 3.025 3.3 2.25 6.908 3.454 10.92 3.418 4.415-.036 7.608-2.573 8.557-6.908.986-4.477-2.385-9.217-6.931-9.706-2.208-.238-4.428-.035-6.636-.107-.593-.012-.688.405-.688.882.012 2.882.012 5.752.024 8.634 0 .274 0 .56-.024.833-.107 1.418-1.163 2.06-2.41 1.382-1.293-.69-2.445-1.62-3.655-2.442-.226-.154-.238-.393-.238-.63 0-4.383 0-8.766.012-13.16 0-.989.57-1.537 1.626-1.572 1.033-.036 2.054-.012 3.086-.024 3.039-.048 6.09-.143 9.128.119 6.101.524 10.09 3.87 12.107 9.54 3.122 8.752-2.849 18.232-12.06 19.161-5.887.596-11.3-1-16.201-4.251-2.529-1.68-5.152-3.002-8.155-3.538a19.08 19.08 0 0 0-3.18-.321c-1.58-.024-2.09-.572-2.102-2.144 0-.75-.011-1.512 0-2.262.024-1.477.487-1.93 1.959-2.025 2.362-.143 4.214-1.739 4.605-3.99.392-2.215-1.187-4.156-3.43-4.192-1.78-.024-3.56-.024-5.341-.024-.713 0-.879.155-.879.87 0 1.215.048 2.417.048 3.632v15.363c0 2.334-.32 2.656-2.623 2.656-.689 0-1.39.012-2.078-.012-1.103-.036-1.661-.62-1.661-1.727C0 22.768 0 18.576 0 14.396Z" fill="#737380"/></svg>
